src/assets/metronic/worbby/global/img/Worbbior Profile Edit Icons/SVGs/icon-endorsements.svg

<?xml version="1.0" encoding="UTF-8"?>
<svg width="50px" height="24px" viewBox="0 0 50 24" version="1.1" xmlns="http://www.w3.org/2000/svg" xmlns:xlink="http://www.w3.org/1999/xlink">
    <!-- Generator: Sketch 42 (36781) - http://www.bohemiancoding.com/sketch -->
    <title>icon-endorsements</title>
    <desc>Created with Sketch.</desc>
    <defs>
        <path d="M35.5608948,7.92684011 L29.2719511,6.92463261 L26.4253886,0.97399537 C26.1376704,0.386037928 25.5545743,0.00622202045 24.9289659,7.60751727e-05 C24.3033574,-0.00606987011 23.725054,0.360558767 23.4468718,0.959464432 L20.6717869,6.8706206 L14.4065111,7.76447992 C13.7829944,7.8520669 13.2607753,8.30127657 13.0750129,8.93994652 C12.8892505,9.57861646 13.0534184,10.2509457 13.512964,10.7151334 L18.0933663,15.3660053 L17.0607344,21.8824577 C16.9616763,22.5326459 17.2187745,23.1916661 17.7359365,23.5792151 C17.9083238,23.7083981 18.0900503,23.8003402 18.281116,23.8550416 C18.6751889,23.9678631 19.1066186,23.9317213 19.4798722,23.7192655 L25.0802572,20.6792355 L30.7231669,23.7982277 C31.2860035,24.105719 31.963002,24.0600534 32.4696559,23.6729118 C32.9763097,23.2857702 33.2280062,22.6393672 33.1235464,21.9841321 L31.9917332,15.4733364 L36.5083483,10.8856749 C36.9558047,10.4283659 37.1150815,9.7421986 36.9145782,9.11268612 C36.7140749,8.48317364 36.188595,8.02671898 35.5608948,7.92684011 Z" id="path-1"></path>
        <mask id="mask-2" maskContentUnits="userSpaceOnUse" maskUnits="objectBoundingBox" x="0" y="0" width="24" height="24" fill="white">
            <use xlink:href="#path-1"></use>
        </mask>
        <path d="M49.2804474,15.9634201 L46.1359755,15.4623163 L44.7126943,12.4869977 C44.5688352,12.193019 44.2772872,12.003111 43.9644829,12.000038 C43.6516787,11.9969651 43.362527,12.1802794 43.2234359,12.4797322 L41.8358935,15.4353103 L38.7032555,15.88224 C38.3914972,15.9260334 38.1303876,16.1506383 38.0375064,16.4699733 C37.9446253,16.7893082 38.0267092,17.1254729 38.256482,17.3575667 L40.5466831,19.6830026 L40.0303672,22.9412288 C39.9808381,23.2663229 40.1093873,23.5958331 40.3679682,23.7896075 C40.4541619,23.854199 40.5450251,23.9001701 40.640558,23.9275208 C40.8375945,23.9839315 41.0533093,23.9658606 41.2399361,23.8596328 L44.0401286,22.3396177 L46.8615835,23.8991138 C47.1430017,24.0528595 47.481501,24.0300267 47.7348279,23.8364559 C47.9881548,23.6428851 48.1140031,23.3196836 48.0617732,22.992066 L47.4958666,19.7366682 L49.7541741,17.4428375 C49.9779024,17.2141829 50.0575407,16.8710993 49.9572891,16.5563431 C49.8570374,16.2415868 49.5942975,16.0133595 49.2804474,15.9634201 Z" id="path-3"></path>
        <mask id="mask-4" maskContentUnits="userSpaceOnUse" maskUnits="objectBoundingBox" x="0" y="0" width="12" height="12" fill="white">
            <use xlink:href="#path-3"></use>
        </mask>
        <path d="M11.2804474,15.9634201 L8.13597553,15.4623163 L6.71269432,12.4869977 C6.56883519,12.193019 6.27728716,12.003111 5.96448294,12.000038 C5.65167872,11.9969651 5.36252701,12.1802794 5.22343592,12.4797322 L3.83589345,15.4353103 L0.703255526,15.88224 C0.3914972,15.9260334 0.130387645,16.1506383 0.0375064495,16.4699733 C-0.0553747464,16.7893082 0.0267091788,17.1254729 0.256482023,17.3575667 L2.54668314,19.6830026 L2.03036719,22.9412288 C1.98083814,23.2663229 2.10938727,23.5958331 2.36796824,23.7896075 C2.45416189,23.854199 2.54502514,23.9001701 2.64055798,23.9275208 C2.83759446,23.9839315 3.05330931,23.9658606 3.2399361,23.8596328 L6.0401286,22.3396177 L8.86158346,23.8991138 C9.14300175,24.0528595 9.48150102,24.0300267 9.73482793,23.8364559 C9.98815483,23.6428851 10.1140031,23.3196836 10.0617732,22.992066 L9.49586659,19.7366682 L11.7541741,17.4428375 C11.9779024,17.2141829 12.0575407,16.8710993 11.9572891,16.5563431 C11.8570374,16.2415868 11.5942975,16.0133595 11.2804474,15.9634201 Z" id="path-5"></path>
        <mask id="mask-6" maskContentUnits="userSpaceOnUse" maskUnits="objectBoundingBox" x="0" y="0" width="12" height="12" fill="white">
            <use xlink:href="#path-5"></use>
        </mask>
    </defs>
    <g id="Symbols" stroke="none" stroke-width="1" fill="none" fill-rule="evenodd">
        <g id="icon-endorsement" stroke-width="4" stroke="#FFCB33">
            <g id="icon-endorsements">
                <use id="Shape" mask="url(#mask-2)" xlink:href="#path-1"></use>
                <use id="Shape-Copy" mask="url(#mask-4)" xlink:href="#path-3"></use>
                <use id="Shape-Copy-2" mask="url(#mask-6)" xlink:href="#path-5"></use>
            </g>
        </g>
    </g>
</svg>

<svg xmlns="http://www.w3.org/2000/svg" width="50" height="24" xmlns:xlink="http://www.w3.org/1999/xlink"><defs><path id="a" d="M35.561 7.9268l-6.289-1.0022L26.4254.974C26.1377.386 25.5546.0062 24.929 0c-.6256-.006-1.204.3606-1.482.9595l-2.7752 5.911-6.2653.894c-.6235.0876-1.1457.5368-1.3315 1.1754-.1857.6386-.0216 1.311.438 1.775l4.5804 4.651-1.0327 6.5165c-.099.65.158 1.3092.6752 1.6967.1723.1292.354.221.545.2758.3942.113.8256.0767 1.199-.1357l5.6003-3.04 5.643 3.119c.5627.3074 1.2397.2618 1.7464-.1254.5066-.3872.7583-1.0336.6538-1.689l-1.1318-6.5107 4.5166-4.5876c.4475-.4573.6068-1.1435.4063-1.773s-.726-1.086-1.3537-1.186z"/><mask id="d" width="24" height="24" x="0" y="0" fill="#fff"><use xlink:href="#a"/></mask><path id="b" d="M49.2804 15.9634l-3.1444-.501-1.4233-2.9754c-.144-.294-.4354-.484-.7482-.487-.3128-.003-.602.1803-.741.4797l-1.3876 2.9556-3.1327.447c-.3118.0437-.573.2683-.6658.5877-.093.3193-.0108.6555.219.8876l2.2902 2.3254-.5163 3.2582c-.0496.325.079.6546.3376.8484.0862.0646.177.1106.2726.138.197.0563.4127.0383.5993-.068l2.8-1.52 2.8216 1.5595c.2814.154.62.131.8732-.0625.2534-.1936.3792-.5168.327-.8444l-.566-3.2553 2.2584-2.294c.2237-.2285.3033-.5716.203-.8864-.1002-.3147-.363-.543-.6768-.593z"/><mask id="e" width="12" height="12" x="0" y="0" fill="#fff"><use xlink:href="#b"/></mask><path id="c" d="M11.2804 15.9634l-3.1444-.501-1.4233-2.9754c-.144-.294-.4354-.484-.7482-.487-.3128-.003-.602.1803-.741.4797l-1.3876 2.9556-3.1327.447c-.3118.0437-.573.2683-.6658.5877-.093.3193-.0108.6555.219.8876l2.2902 2.3254-.5163 3.2582c-.0496.325.079.6546.3376.8484.0862.0646.177.1106.2726.138.197.0563.4127.0383.5993-.068l2.8-1.52 2.8216 1.5595c.2814.154.62.131.8732-.0625.2534-.1936.3792-.5168.327-.8444l-.566-3.2553 2.2584-2.294c.2237-.2285.3033-.5716.203-.8864-.1002-.3147-.363-.543-.6768-.593z"/><mask id="f" width="12" height="12" x="0" y="0" fill="#fff"><use xlink:href="#c"/></mask></defs><g fill="none" fill-rule="evenodd" stroke="#FFCB33" stroke-width="4"><use mask="url(#d)" xlink:href="#a"/><use mask="url(#e)" xlink:href="#b"/><use mask="url(#f)" xlink:href="#c"/></g></svg>
